X:1
T:60 National Airs of Different Nations
T:Nº. 45. Rule Britannia.
T:60 National Airs of Different Nations
T:Felix Horetzky (1796-1870)
T:Sheet music from www.MutopiaProject.org . Pubblico dominio
C:Felix Horetzky
C:(1796-1870)
Z:Sheet music from www.MutopiaProject.org . Pubblico dominio
%%score ( 1 2 3 )
L:1/8
Q:1/4=75
M:4/4
K:C
V:1 treble-8 nm="N°. 45        \nMAESTOSO  "
V:2 treble-8 
V:3 treble-8 
V:1
 G2 |!f! [EGd]2 [FAc]2 c/d/e/f/ g[Ac] | [cd]2 de/f/ [ce]2 z G | %3
 (c/d/)(c/d/) (e/f/)(e/f/) [dg][Gd][Ge]d | [Ac]d/e/ dc B2!<(! z2!<)! |!f! GGdB g^f/e/ d/c/B/A/ | %6
 G2 B>A G2 z2 |!p! c2 c>G [FA]G z [Ac] | [Adf]>[Ace] [Ad][Ac] [GB]2 z d | [ca]2 [df]2 e f [cg]c | %10
 c2 e>d c z z2 |!f! [ce]2 z [Ace] [Acf][Acf] z [Acf] | [Adf]>[Ace] d[Ac] [GB]2 z2 | %13
 [cg]2 f2 e/d/e/f/ g/a/b/c'/ | [ce]2 [Bd]2 [EGc]2!D.C.! || %15
V:2
 z2 | C2 C2 [CEG]2 [E,Gc][A,E] | FD [B,G]G, [CG] CGF | [EG][EG] [CG][Gc] B,B,C[E^G] | %4
 A,2 [D^F]2 [G,G]A,/B,/ C/D/E/F/ | G,2 ^F,2 E,2 z C | D2 [D^F]2 [G,B,]G/A/ G/=F/E/D/ | %7
 [CEG]2 [CEG]E, F,2 z E | DE F^F z/ G,/B,/D/ G/A/=F/G/ | [EG]/D/E/C/ [B,G]/A,/B,/G,/ CD [EG][FA] | %10
 [G,E]2 [G,FB]2 [CE]B/A/ G/F/E/D/ | [CG]2 z A, F,F, z F | DE [FA]^F z/ G,/A,/B,/ C/D/E/=F/ | %13
 [EG]D/C/ [DGB]G, [CGc]2 [E,Gc]2 | [G,G]2 [G,F]2 C2 || %15
V:3
 x2 | x8 | x8 | x8 | x8 | x8 | x8 | x8 | x8 | x4 c/G/ B/G/ x2 | x8 | x8 | x8 | x8 | x6 || %15

